X:181 
T:Road to Boyle, The 
T:Delahunty's, The Wicklow 
B:CRE3.227	(BÃÂÃÂÃÂÃÂ³thar go Mainistir na BÃÂÃÂÃÂÃÂºille)
F:file ID: cre.3/181road_b
N:CRE has no C naturals anywhere. I have supplied them.
R:hornpipe
L:1/8
Q:150
M:C
K:D
dB|A3F DE (3FED|AGAB =c2 (3ABc|dcde (3fed AF| DGGF G2FG|
ABAF DEFD|AGAB =cB (3ABc|dcde (3fed AG|(3FGF EF D2:|
zg|fdcd ecAF|dggf g2fg|a3b agec|dcAF G2FG|
ABAF DEFD|AGAB =cB (3ABc|dcde (3fed AG|FGEF D2:|

%%%

